brands/spt-glasgow-subway.svg

<?xml version="1.0" encoding="UTF-8"?>
<svg width="213px" height="213px" viewBox="0 0 213 213" version="1.1" xmlns="http://www.w3.org/2000/svg" xmlns:xlink="http://www.w3.org/1999/xlink">
    <title>Icon/Logo/Subway logo</title>
    <g id="Icon/Logo/Subway-logo" stroke="none" stroke-width="1" fill="none" fill-rule="evenodd">
        <g id="Group-10">
            <path d="M107.476,174.2483 C145.308,174.2483 175.976,143.5793 175.976,105.7483 C175.976,67.9173 145.308,37.2483 107.476,37.2483 C69.645,37.2483 38.976,67.9173 38.976,105.7483 C38.976,143.5793 69.645,174.2483 107.476,174.2483" id="Fill-1" fill="#FFFFFF"></path>
            <path d="M186.0199,106.2961 C186.0199,150.3251 150.3249,186.0211 106.2959,186.0211 C62.2659,186.0211 26.5719,150.3251 26.5719,106.2961 C26.5719,62.2671 62.2659,26.5721 106.2959,26.5721 C150.3249,26.5721 186.0199,62.2671 186.0199,106.2961 M106.2959,53.1451 C76.9409,53.1451 53.1459,76.9411 53.1459,106.2961 C53.1459,135.6491 76.9409,159.4441 106.2959,159.4441 C135.6479,159.4441 159.4439,135.6491 159.4439,106.2961 C159.4439,76.9411 135.6479,53.1451 106.2959,53.1451" id="Fill-3" fill="#4D4F53"></path>
            <path d="M212.5961,106.3 C212.5961,165.007 165.0071,212.596 106.2961,212.596 C47.5901,212.596 0.0001,165.007 0.0001,106.3 C0.0001,47.589 47.5901,0 106.2961,0 C165.0071,0 212.5961,47.589 212.5961,106.3 M106.2961,26.572 C62.2661,26.572 26.5741,62.267 26.5741,106.296 C26.5741,150.329 62.2661,186.021 106.2961,186.021 C150.3281,186.021 186.0241,150.329 186.0241,106.296 C186.0241,62.267 150.3281,26.572 106.2961,26.572" id="Fill-5" fill="#FF6200"></path>
            <path d="M106.0453,138.1897 C99.3593,138.1897 89.7703,136.5567 83.7103,134.5427 L86.6113,121.0837 C91.6623,122.5857 98.3553,123.8457 105.1643,123.8457 C110.5883,123.8457 111.4763,122.3327 111.4763,118.6857 C111.4763,114.7967 111.3463,114.2877 101.5003,111.8997 C86.6113,108.2517 85.2243,104.2237 85.2243,92.7757 C85.2243,79.8227 90.2693,74.4067 108.6953,74.4067 C113.3693,74.4067 121.9473,75.0367 127.3753,76.4247 L125.7323,90.5127 C120.3073,89.5017 113.6203,88.7547 108.8233,88.7547 C103.5243,88.7547 102.2623,90.1317 102.2623,92.9007 C102.2623,96.6757 102.7663,97.1777 110.0863,98.8147 C127.6243,102.7147 128.8873,106.4867 128.8873,118.6857 C128.8873,131.2717 123.5873,138.1897 106.0453,138.1897" id="Fill-8" fill="#FF6200"></path>
        </g>
    </g>
</svg>

<svg xmlns="http://www.w3.org/2000/svg" viewBox="0 0 213 213"><g fill="none" fill-rule="evenodd"><path fill="#FFF" d="M107.48 174.25a68.5 68.5 0 1 0 0-137 68.5 68.5 0 0 0 0 137"/><path fill="#4D4F53" d="M186.02 106.3a79.73 79.73 0 1 1-159.45 0 79.73 79.73 0 0 1 159.45 0M106.3 53.15a53.15 53.15 0 1 0 0 106.3 53.15 53.15 0 0 0 0-106.3"/><path fill="#FF6200" d="M212.6 106.3c0 58.7-47.6 106.3-106.3 106.3C47.59 212.6 0 165 0 106.3 0 47.59 47.59 0 106.3 0 165 0 212.6 47.59 212.6 106.3M106.3 26.57a79.72 79.72 0 1 0 0 159.45 79.72 79.72 0 0 0 0-159.45"/><path fill="#FF6200" d="M106.05 138.19a82.12 82.12 0 0 1-22.34-3.65l2.9-13.46a67.31 67.31 0 0 0 18.55 2.77c5.43 0 6.32-1.52 6.32-5.16 0-3.9-.13-4.4-9.98-6.79-14.89-3.65-16.28-7.68-16.28-19.12 0-12.96 5.05-18.37 23.48-18.37 4.67 0 13.25.63 18.68 2.01l-1.65 14.1a102.49 102.49 0 0 0-16.9-1.77c-5.3 0-6.57 1.38-6.57 4.15 0 3.78.5 4.28 7.83 5.91 17.53 3.9 18.8 7.68 18.8 19.88 0 12.58-5.3 19.5-22.84 19.5"/></g></svg>
